X: 25
T:BB's Reel
M:4/4
L:1/8
K:G
||: A | B2 D>D E2 D2 |  B2 D>D E2 D2 | c3 B A3 G | F2 E2 D3  A | B2 D>D
E2 D2 |  B2 D>D E2 D2
 | c3 B A3 G | G>D E>F G3 :||:
E | D2 D>D E2 E>E | D2 G2 B4 | A2 A>G F>A B>F | G2 E2 D3 |
E | D2 D>D E2 E>E | D2 G2 B4 | A2 A>G F>A B>F | G>D E>F G3 ||
